dist/img/star-empty.svg

<svg width="34" height="33" viewBox="0 0 34 33" fill="none" xmlns="http://www.w3.org/2000/svg">
<path d="M17 1.23607L20.3147 11.4377C20.5825 12.2617 21.3504 12.8197 22.2168 12.8197H32.9434L24.2654 19.1246C23.5645 19.6339 23.2711 20.5366 23.5389 21.3607L26.8536 31.5623L18.1756 25.2574C17.4746 24.7481 16.5254 24.7481 15.8244 25.2574L7.14641 31.5623L10.4611 21.3607C10.7289 20.5366 10.4355 19.6339 9.73457 19.1246L1.05655 12.8197H11.7832C12.6496 12.8197 13.4175 12.2617 13.6853 11.4377L17 1.23607Z" stroke="#D1327F" stroke-width="2"/>
</svg>

<svg width="34" height="33" fill="none" xmlns="http://www.w3.org/2000/svg"><path d="m17 1.236 3.315 10.202a2 2 0 0 0 1.902 1.382h10.726l-8.678 6.305a2 2 0 0 0-.726 2.236l3.315 10.201-8.678-6.305a2 2 0 0 0-2.352 0l-8.678 6.305 3.315-10.201a2 2 0 0 0-.726-2.236L1.057 12.82h10.726a2 2 0 0 0 1.902-1.382L17 1.236Z" stroke="#D1327F" stroke-width="2"/></svg>
